X:21
T:Lou plang de Nosto Damo
C:Trad.
O:France
A:Provence
R:Chanson
M:3/4
L:1/4
K:Bb
d2c | edc | B3 | f2e | gfe | d3 | Bed | GGc |
A2 B | cd2 | c2z | e3 | d3 | c3 | B2c | d2G | c2B | !breath!A3 | B3 |
c2e | d3 | cBA | BA2 | !breath!G3 | dcB | cBA | G3 - | G3 |]
%%footer $D   Galouvielle-MBe 2005 \nCharleston France
